lib/assets/images/service_next.svg

<svg width="41" height="40" viewBox="0 0 41 40" fill="none" xmlns="http://www.w3.org/2000/svg">
<g clip-path="url(#clip0_3_3444)">
<path fill-rule="evenodd" clip-rule="evenodd" d="M21 0.0432129C32.039 0.0432129 41 8.99458 41 20.0216C41 31.0487 32.039 40 21 40C9.96104 40 1 31.0487 1 20.0216C1 8.99458 9.96104 0.0432129 21 0.0432129V0.0432129Z" fill="#5ECF70"/>
<path d="M10 17.0286C10 15.2684 10 14.3884 10.3426 13.7161C10.6439 13.1247 11.1247 12.6439 11.716 12.3426C12.3883 12 13.2684 12 15.0286 12H26.9714C28.7316 12 29.6117 12 30.284 12.3426C30.8753 12.6439 31.3561 13.1247 31.6574 13.7161C32 14.3884 32 15.2684 32 17.0286V21.9715C32 23.7316 32 24.6117 31.6574 25.284C31.3561 25.8754 30.8753 26.3562 30.284 26.6575C29.6117 27 28.7316 27 26.9714 27H15.0286C13.2684 27 12.3883 27 11.716 26.6575C11.1247 26.3562 10.6439 25.8754 10.3426 25.284C10 24.6117 10 23.7316 10 21.9715V17.0286Z" fill="white"/>
<path fill-rule="evenodd" clip-rule="evenodd" d="M24.9125 18.9518L22.2617 16.4777C21.7823 16.0302 21 16.3702 21 17.026V17.8475C21 18.1044 20.8054 18.3195 20.5498 18.3451L16.6965 18.7304C16.3011 18.7699 16 19.1027 16 19.5C16 19.8974 16.3011 20.2301 16.6965 20.2697L20.5498 20.655C20.8054 20.6806 21 20.8957 21 21.1525V21.9741C21 22.6299 21.7823 22.9699 22.2617 22.5224L24.9125 20.0484C25.2302 19.7518 25.2302 19.2483 24.9125 18.9518Z" fill="#1DC78A"/>
</g>
<defs>
<clipPath id="clip0_3_3444">
<rect width="41" height="40" fill="white"/>
</clipPath>
</defs>
</svg>

<svg width="41" height="40" fill="none" xmlns="http://www.w3.org/2000/svg"><g clip-path="url(#clip0_3_3444)"><path fill-rule="evenodd" clip-rule="evenodd" d="M21 .043c11.039 0 20 8.952 20 19.979S32.039 40 21 40 1 31.049 1 20.022C1 8.995 9.961.043 21 .043z" fill="#5ECF70"/><path d="M10 17.029c0-1.76 0-2.64.343-3.313a3.143 3.143 0 0 1 1.373-1.373C12.388 12 13.268 12 15.029 12H26.97c1.76 0 2.64 0 3.313.343a3.143 3.143 0 0 1 1.373 1.373c.343.672.343 1.552.343 3.313v4.942c0 1.76 0 2.64-.343 3.313a3.143 3.143 0 0 1-1.373 1.373c-.672.343-1.552.343-3.313.343H15.03c-1.76 0-2.64 0-3.313-.343a3.143 3.143 0 0 1-1.373-1.373C10 24.612 10 23.732 10 21.971V17.03z" fill="#fff"/><path fill-rule="evenodd" clip-rule="evenodd" d="M24.913 18.952l-2.651-2.474a.75.75 0 0 0-1.262.548v.822a.5.5 0 0 1-.45.497l-3.854.385a.773.773 0 0 0 0 1.54l3.854.385a.5.5 0 0 1 .45.497v.822a.75.75 0 0 0 1.262.548l2.65-2.474a.75.75 0 0 0 0-1.096z" fill="#1DC78A"/></g><defs><clipPath id="clip0_3_3444"><path fill="#fff" d="M0 0h41v40H0z"/></clipPath></defs></svg>
